X:0825
T:Mr. McLae's Farewell.
N:Mr. McLae's Farewel % in index
N:bar 11 is |G3BA3c B3d Hg6d2| in the book
N:upbeats in second part are printed (d3/e/f/)
M:C
L:1/16
Q:1/4=56
I: :: ||
Z:Jack Campin * www.campin.me.uk * 2009
K:G
 G2        |D2G2B3G E2G2D2G2|AGAB cBAG F2A2A4            |D2G2B3G E2G2D2G2|AGAB cedc B2G2G2:|
(d3/e//f//)|g3dB2g2 e3d edcB|AGAB cBAG F2A2A2 (d3/e//f//)|g3dB2g2 e3d edcB|AGAB cedc B2G2G2
(d3/e//f//)|g3dB2g2 e3d edcB|AGAB cBAG F2A2A4            |G3BA3c  B3d Hg3d|edef gedc B2G2G2|]

